icons/dailydev-dark.svg

<svg width="256" height="256" viewBox="0 0 256 256" fill="none" xmlns="http://www.w3.org/2000/svg">
<path d="M196 0H60C26.8629 0 0 26.8629 0 60V196C0 229.137 26.8629 256 60 256H196C229.137 256 256 229.137 256 196V60C256 26.8629 229.137 0 196 0Z" fill="#282828"/>
<path opacity="0.56" d="M202.271 128.431L179.48 105.747L190.869 83.0703L227.894 119.928C232.613 124.625 232.613 132.239 227.894 136.936L182.325 182.299C177.605 186.997 169.956 186.997 165.24 182.299C160.523 177.605 160.523 169.989 165.24 165.294L202.271 128.431Z" fill="white"/>
<path d="M165.243 74.5214C169.962 69.8247 177.611 69.8272 182.331 74.523L190.875 83.0282L91.1922 182.259C86.4755 186.953 78.8238 186.953 74.1071 182.256L65.5632 173.75L165.243 74.5214ZM122.523 105.709L105.436 122.721L82.6483 100.035L54.1641 128.39L76.9514 151.073L65.5632 173.75L28.5382 136.893C23.8206 132.195 23.8206 124.582 28.5382 119.887L74.1071 74.523C78.8238 69.8272 86.4755 69.8247 91.1922 74.5214L122.523 105.709Z" fill="white"/>
</svg>

<svg xmlns="http://www.w3.org/2000/svg" width="256" height="256" fill="none"><path fill="#282828" d="M196 0H60C26.863 0 0 26.863 0 60v136c0 33.137 26.863 60 60 60h136c33.137 0 60-26.863 60-60V60c0-33.137-26.863-60-60-60"/><path fill="#fff" d="m202.271 128.431-22.791-22.684 11.389-22.677 37.025 36.858a11.986 11.986 0 0 1 0 17.008l-45.569 45.363c-4.72 4.698-12.369 4.698-17.085 0a11.986 11.986 0 0 1 0-17.005z" opacity=".56"/><path fill="#fff" d="M165.243 74.521c4.719-4.696 12.368-4.694 17.088.002l8.544 8.505-99.683 99.231c-4.716 4.694-12.368 4.694-17.085-.003l-8.544-8.506zm-42.72 31.188-17.087 17.012-22.788-22.686-28.484 28.355 22.787 22.683-11.388 22.677-37.025-36.857c-4.717-4.698-4.717-12.311 0-17.006l45.57-45.364c4.716-4.696 12.367-4.698 17.084-.002z"/></svg>
